fs/building_bank_28_filled.svg

<svg viewBox="0 0 28 28" fill="none" xmlns="http://www.w3.org/2000/svg" height="1em" width="1em">
  <path d="M13.1101 2.29277C13.6394 1.9024 14.3611 1.90241 14.8903 2.29279L24.3875 9.29824C25.5112 10.1272 24.9855 11.8764 23.6476 11.9989H4.35243C3.01448 11.8764 2.48874 10.1271 3.61254 9.29822L13.1101 2.29277ZM14.0001 8.99865C14.8284 8.99865 15.4999 8.32702 15.4999 7.49852C15.4999 6.67002 14.8284 5.99839 14.0001 5.99839C13.1718 5.99839 12.5004 6.67002 12.5004 7.49852C12.5004 8.32702 13.1718 8.99865 14.0001 8.99865ZM19.4992 12.999H21.9988V18.9995H19.4992V12.999ZM17.4995 18.9995V12.999H15V18.9995H17.4995ZM13.0003 18.9995V12.999H10.5007V18.9995H13.0003ZM8.50104 18.9995V12.999H6.00145V18.9995H8.50104ZM6.25141 19.9996C4.45679 19.9996 3.00195 21.4548 3.00195 23.2499V23.7499C3.00195 24.1642 3.33768 24.5 3.75183 24.5H24.2484C24.6626 24.5 24.9983 24.1642 24.9983 23.7499V23.2499C24.9983 21.4548 23.5435 19.9996 21.7488 19.9996H6.25141Z" fill="#212121"/>
</svg>

<svg viewBox="0 0 28 28" fill="none" xmlns="http://www.w3.org/2000/svg" height="1em" width="1em">
  <path d="M13.11 2.293a1.5 1.5 0 0 1 1.78 0l9.497 7.005c1.124.83.598 2.578-.74 2.7H4.353c-1.338-.122-1.863-1.87-.74-2.7l9.498-7.005ZM14 8.999a1.5 1.5 0 1 0 0-3 1.5 1.5 0 0 0 0 3Zm5.5 4h2.499v6h-2.5v-6Zm-2 6v-6H15v6h2.5ZM13 19v-6h-2.5v6H13Zm-4.499 0v-6h-2.5v6h2.5Zm-2.25 1a3.25 3.25 0 0 0-3.25 3.25v.5a.752.752 0 0 0 .75.751h20.497a.75.75 0 0 0 .75-.75v-.5a3.25 3.25 0 0 0-3.25-3.25H6.252Z" fill="#212121"/>
</svg>
